X: 37165
T: Sir David Davidson Of Cantray
R: reel
M: 4/4
K: Dmajor
A|d2fd cdBd|AdFd EecA|d2fd cdAF|GEec d2dA|
d2fd cdBd|AdFd EecA|d2fd cdAF|GEec d2d||
f|afdf afba|gfed cdef|gfed cbag|fedc d2df|
afdf afba|gfed cBAG|FAdA Bged|cAec d3||

